img/icn-internet.svg

<svg id="Layer_1" xmlns="http://www.w3.org/2000/svg" viewBox="0 0 50 50"><style>.st0{fill:#FFFFFF;}</style><path class="st0" d="M25 7.1c-10.1 0-18.3 8.2-18.3 18.3S14.9 43.7 25 43.7s18.3-8.2 18.3-18.3c.1-10-8.1-18.3-18.3-18.3zm-1 17.3h-8c.1-2.5.6-4.7 1.3-6.5H24v6.5zm2.1-6.5h6.6c.7 1.8 1.2 4 1.4 6.5h-7.9v-6.5h-.1zM24 26.5V33h-6.6c-.7-1.8-1.2-4-1.3-6.5H24zm2.1 0H34c-.1 2.5-.6 4.7-1.3 6.5h-6.6v-6.5zm8.9-8.6h4.4c1 2 1.7 4.2 1.8 6.5h-5c-.1-2.5-.5-4.6-1.2-6.5zm-8.9-2.1V10c1.5.9 3.8 2.7 5.5 5.8h-5.5zM24 10v5.8h-5.5c1.7-3.1 4-4.9 5.5-5.8zm-13.3 7.9h4.4c-.7 1.8-1.1 4-1.2 6.5h-5c.2-2.3.8-4.5 1.8-6.5zm3.2 8.6c.1 2.5.6 4.6 1.2 6.5h-4.4c-1-2-1.7-4.2-1.8-6.5h5zM24 35.2V41c-1.5-.9-3.8-2.7-5.5-5.8H24zm2.1 5.8v-5.8h5.5c-1.7 3-4 4.8-5.5 5.8zm13.3-8H35c.7-1.8 1.1-4 1.2-6.5h5c-.2 2.4-.8 4.6-1.8 6.5zM38 15.8h-3.9c-1.3-2.6-3-4.5-4.5-5.8 3.4.9 6.3 3 8.4 5.8zM20.5 10c-.4.4-.8.8-1.3 1.2-1.1 1.1-2.2 2.7-3.2 4.6h-3.9c2.1-2.8 5-4.9 8.4-5.8zm-8.4 25.2H16c1.3 2.6 3 4.5 4.5 5.8-3.4-1-6.3-3.1-8.4-5.8zM29.6 41c.4-.4.8-.8 1.3-1.2 1.1-1.1 2.2-2.7 3.2-4.6H38c-2.1 2.7-5 4.8-8.4 5.8z"/></svg>

<?xml version="1.0" encoding="utf-8"?>
<!-- Generator: Adobe Illustrator 21.0.0, SVG Export Plug-In . SVG Version: 6.00 Build 0)  -->
<svg version="1.1" id="Layer_1" xmlns="http://www.w3.org/2000/svg" xmlns:xlink="http://www.w3.org/1999/xlink" x="0px" y="0px"
	 viewBox="0 0 50 50" style="enable-background:new 0 0 50 50;" xml:space="preserve">
<style type="text/css">
	.st0{fill:#8A8BA9;}
</style>
<path class="st0" d="M25,7.1c-10.1,0-18.3,8.2-18.3,18.3S14.9,43.7,25,43.7s18.3-8.2,18.3-18.3C43.4,15.4,35.2,7.1,25,7.1z M24,24.4
	h-8c0.1-2.5,0.6-4.7,1.3-6.5H24V24.4z M26.1,17.9h6.6c0.7,1.8,1.2,4,1.4,6.5h-7.9v-6.5C26.2,17.9,26.1,17.9,26.1,17.9z M24,26.5V33
	h-6.6c-0.7-1.8-1.2-4-1.3-6.5H24z M26.1,26.5H34c-0.1,2.5-0.6,4.7-1.3,6.5h-6.6V26.5z M35,17.9h4.4c1,2,1.7,4.2,1.8,6.5h-5
	C36.1,21.9,35.7,19.8,35,17.9z M26.1,15.8V10c1.5,0.9,3.8,2.7,5.5,5.8C31.6,15.8,26.1,15.8,26.1,15.8z M24,10v5.8h-5.5
	C20.2,12.7,22.5,10.9,24,10z M10.7,17.9h4.4c-0.7,1.8-1.1,4-1.2,6.5h-5C9.1,22.1,9.7,19.9,10.7,17.9z M13.9,26.5
	c0.1,2.5,0.6,4.6,1.2,6.5h-4.4c-1-2-1.7-4.2-1.8-6.5C8.9,26.5,13.9,26.5,13.9,26.5z M24,35.2V41c-1.5-0.9-3.8-2.7-5.5-5.8H24z
	 M26.1,41v-5.8h5.5C29.9,38.2,27.6,40,26.1,41z M39.4,33H35c0.7-1.8,1.1-4,1.2-6.5h5C41,28.9,40.4,31.1,39.4,33z M38,15.8h-3.9
	c-1.3-2.6-3-4.5-4.5-5.8C33,10.9,35.9,13,38,15.8z M20.5,10c-0.4,0.4-0.8,0.8-1.3,1.2c-1.1,1.1-2.2,2.7-3.2,4.6h-3.9
	C14.2,13,17.1,10.9,20.5,10z M12.1,35.2H16c1.3,2.6,3,4.5,4.5,5.8C17.1,40,14.2,37.9,12.1,35.2z M29.6,41c0.4-0.4,0.8-0.8,1.3-1.2
	c1.1-1.1,2.2-2.7,3.2-4.6H38C35.9,37.9,33,40,29.6,41z"/>
</svg>
